svg/repeat.svg

<svg width="24" height="24" viewBox="0 0 24 24" fill="none" xmlns="http://www.w3.org/2000/svg">
<path d="M20.9241 5.61722C20.8753 5.49927 20.803 5.38877 20.7071 5.29289L17.7071 2.29289C17.3166 1.90237 16.6834 1.90237 16.2929 2.29289C15.9024 2.68342 15.9024 3.31658 16.2929 3.70711L17.5858 5L8 5C5.23858 5 3 7.23858 3 10V12C3 12.5523 3.44772 13 4 13C4.55228 13 5 12.5523 5 12L5 10C5 8.34315 6.34315 7 8 7L17.5858 7L16.2929 8.29289C15.9024 8.68342 15.9024 9.31658 16.2929 9.70711C16.6834 10.0976 17.3166 10.0976 17.7071 9.70711L20.7063 6.70787C20.7088 6.70544 20.7112 6.703 20.7136 6.70055C20.9045 6.50613 21 6.25307 21 6" fill="#0D0D0D"/>
<path d="M20.9241 5.61722C20.9727 5.73425 20.9996 5.8625 21 5.997Z" fill="#0D0D0D"/>
<path d="M3.07588 17.6172C3.02699 17.7351 3 17.8644 3 18C3 18.2761 3.11193 18.5261 3.29289 18.7071L6.29289 21.7071C6.68342 22.0976 7.31658 22.0976 7.70711 21.7071C8.09763 21.3166 8.09763 20.6834 7.70711 20.2929L6.41421 19L16 19C18.7614 19 21 16.7614 21 14V12C21 11.4477 20.5523 11 20 11C19.4477 11 19 11.4477 19 12V14C19 15.6569 17.6569 17 16 17L6.41421 17L7.70711 15.7071C8.09763 15.3166 8.09763 14.6834 7.70711 14.2929C7.31658 13.9024 6.68342 13.9024 6.29289 14.2929L3.29316 17.2926" fill="#0D0D0D"/>
<path d="M3.07588 17.6172C3.12432 17.5001 3.19595 17.3904 3.29078 17.295Z" fill="#0D0D0D"/>
</svg>

<svg width="24" height="24" fill="none" xmlns="http://www.w3.org/2000/svg"><path d="M20.924 5.617a.997.997 0 00-.217-.324l-3-3a1 1 0 10-1.414 1.414L17.586 5H8a5 5 0 00-5 5v2a1 1 0 102 0v-2a3 3 0 013-3h9.586l-1.293 1.293a1 1 0 001.414 1.414l3-3A.997.997 0 0021 6M20.924 5.617a.996.996 0 01.076.38zM3.076 17.617a.997.997 0 00.217 1.09l3 3a1 1 0 001.414-1.414L6.414 19H16a5 5 0 005-5v-2a1 1 0 10-2 0v2a3 3 0 01-3 3H6.414l1.293-1.293a1 1 0 10-1.414-1.414l-3 3M3.076 17.617a.997.997 0 01.215-.322z" fill="#0D0D0D"/></svg>
